X:37
T:Kicsi madár, mért keseregsz az ágon
M:4/4
L:1/4
K:F
D/E/F/G/ A/B/A/G/ | F<A c2 |
d/c/B/A/ G/F/A/G/ | F<F F2 |
d>B A<G | A/A/ D/F/ | A<G F2 |
d c/B/ A<G | F/A/G/F/ | ^C<D D2 |

